assets/img/llamada.svg

<svg width="96" height="96" fill="none" xmlns="http://www.w3.org/2000/svg"><g clip-path="url(#a)"><path d="M80 62c-5 0-9.8-.8-14.28-2.28-1.4-.44-2.96-.12-4.08.96l-8.8 8.8c-11.32-5.76-20.6-15-26.36-26.36l8.8-8.84c1.12-1.04 1.44-2.6 1-4A45.441 45.441 0 0 1 34 16c0-2.2-1.8-4-4-4H16c-2.2 0-4 1.8-4 4 0 37.56 30.44 68 68 68 2.2 0 4-1.8 4-4V66c0-2.2-1.8-4-4-4Zm4-38H72V12h-8v12H52v8h12v12h8V32h12v-8Z" fill="#000"/></g><defs><clipPath id="a"><path fill="#fff" d="M0 0h96v96H0z"/></clipPath></defs></svg>

<svg width="96" height="96" viewBox="0 0 96 96" fill="none" xmlns="http://www.w3.org/2000/svg">
<g clip-path="url(#clip0_87_3)">
<path d="M80 62C75 62 70.2 61.2 65.72 59.72C64.32 59.28 62.76 59.6 61.64 60.68L52.84 69.48C41.52 63.72 32.24 54.48 26.48 43.12L35.28 34.28C36.4 33.24 36.72 31.68 36.28 30.28C34.8 25.8 34 21 34 16C34 13.8 32.2 12 30 12H16C13.8 12 12 13.8 12 16C12 53.56 42.44 84 80 84C82.2 84 84 82.2 84 80V66C84 63.8 82.2 62 80 62ZM84 24H72V12H64V24H52V32H64V44H72V32H84V24Z" fill="black"/>
</g>
<defs>
<clipPath id="clip0_87_3">
<rect width="96" height="96" fill="white"/>
</clipPath>
</defs>
</svg>
